src/lib/packages/icons/src/assets/line/keypad.svg

<svg width="24" height="24" viewBox="0 0 24 24" fill="none" xmlns="http://www.w3.org/2000/svg">
<path d="M12.5 1.25C11.26 1.25 10.25 2.259 10.25 3.5C10.25 4.741 11.26 5.75 12.5 5.75C13.74 5.75 14.75 4.741 14.75 3.5C14.75 2.259 13.74 1.25 12.5 1.25ZM12.5 4.25C12.087 4.25 11.75 3.914 11.75 3.5C11.75 3.086 12.087 2.75 12.5 2.75C12.913 2.75 13.25 3.086 13.25 3.5C13.25 3.914 12.913 4.25 12.5 4.25ZM18.5 5.75C19.74 5.75 20.75 4.741 20.75 3.5C20.75 2.259 19.74 1.25 18.5 1.25C17.26 1.25 16.25 2.259 16.25 3.5C16.25 4.741 17.26 5.75 18.5 5.75ZM18.5 2.75C18.913 2.75 19.25 3.086 19.25 3.5C19.25 3.914 18.913 4.25 18.5 4.25C18.087 4.25 17.75 3.914 17.75 3.5C17.75 3.086 18.087 2.75 18.5 2.75ZM6.5 1.25C5.26 1.25 4.25 2.259 4.25 3.5C4.25 4.741 5.26 5.75 6.5 5.75C7.74 5.75 8.75 4.741 8.75 3.5C8.75 2.259 7.74 1.25 6.5 1.25ZM6.5 4.25C6.087 4.25 5.75 3.914 5.75 3.5C5.75 3.086 6.087 2.75 6.5 2.75C6.913 2.75 7.25 3.086 7.25 3.5C7.25 3.914 6.913 4.25 6.5 4.25ZM12.5 6.91699C11.26 6.91699 10.25 7.92599 10.25 9.16699C10.25 10.408 11.26 11.417 12.5 11.417C13.74 11.417 14.75 10.408 14.75 9.16699C14.75 7.92599 13.74 6.91699 12.5 6.91699ZM12.5 9.91699C12.087 9.91699 11.75 9.58099 11.75 9.16699C11.75 8.75299 12.087 8.41699 12.5 8.41699C12.913 8.41699 13.25 8.75299 13.25 9.16699C13.25 9.58099 12.913 9.91699 12.5 9.91699ZM18.5 6.91699C17.26 6.91699 16.25 7.92599 16.25 9.16699C16.25 10.408 17.26 11.417 18.5 11.417C19.74 11.417 20.75 10.408 20.75 9.16699C20.75 7.92599 19.74 6.91699 18.5 6.91699ZM18.5 9.91699C18.087 9.91699 17.75 9.58099 17.75 9.16699C17.75 8.75299 18.087 8.41699 18.5 8.41699C18.913 8.41699 19.25 8.75299 19.25 9.16699C19.25 9.58099 18.913 9.91699 18.5 9.91699ZM6.5 6.91699C5.26 6.91699 4.25 7.92599 4.25 9.16699C4.25 10.408 5.26 11.417 6.5 11.417C7.74 11.417 8.75 10.408 8.75 9.16699C8.75 7.92599 7.74 6.91699 6.5 6.91699ZM6.5 9.91699C6.087 9.91699 5.75 9.58099 5.75 9.16699C5.75 8.75299 6.087 8.41699 6.5 8.41699C6.913 8.41699 7.25 8.75299 7.25 9.16699C7.25 9.58099 6.913 9.91699 6.5 9.91699ZM12.5 12.583C11.26 12.583 10.25 13.592 10.25 14.833C10.25 16.074 11.26 17.083 12.5 17.083C13.74 17.083 14.75 16.074 14.75 14.833C14.75 13.592 13.74 12.583 12.5 12.583ZM12.5 15.583C12.087 15.583 11.75 15.247 11.75 14.833C11.75 14.419 12.087 14.083 12.5 14.083C12.913 14.083 13.25 14.419 13.25 14.833C13.25 15.247 12.913 15.583 12.5 15.583ZM18.5 12.583C17.26 12.583 16.25 13.592 16.25 14.833C16.25 16.074 17.26 17.083 18.5 17.083C19.74 17.083 20.75 16.074 20.75 14.833C20.75 13.592 19.74 12.583 18.5 12.583ZM18.5 15.583C18.087 15.583 17.75 15.247 17.75 14.833C17.75 14.419 18.087 14.083 18.5 14.083C18.913 14.083 19.25 14.419 19.25 14.833C19.25 15.247 18.913 15.583 18.5 15.583ZM6.5 12.583C5.26 12.583 4.25 13.592 4.25 14.833C4.25 16.074 5.26 17.083 6.5 17.083C7.74 17.083 8.75 16.074 8.75 14.833C8.75 13.592 7.74 12.583 6.5 12.583ZM6.5 15.583C6.087 15.583 5.75 15.247 5.75 14.833C5.75 14.419 6.087 14.083 6.5 14.083C6.913 14.083 7.25 14.419 7.25 14.833C7.25 15.247 6.913 15.583 6.5 15.583ZM12.5 18.25C11.26 18.25 10.25 19.259 10.25 20.5C10.25 21.741 11.26 22.75 12.5 22.75C13.74 22.75 14.75 21.741 14.75 20.5C14.75 19.259 13.74 18.25 12.5 18.25ZM12.5 21.25C12.087 21.25 11.75 20.914 11.75 20.5C11.75 20.086 12.087 19.75 12.5 19.75C12.913 19.75 13.25 20.086 13.25 20.5C13.25 20.914 12.913 21.25 12.5 21.25Z" fill="currentColor"/>
</svg>

<svg xmlns="http://www.w3.org/2000/svg" width="24" height="24" fill="none"><path fill="currentColor" d="M12.5 1.25a2.253 2.253 0 0 0-2.25 2.25c0 1.241 1.01 2.25 2.25 2.25s2.25-1.009 2.25-2.25-1.01-2.25-2.25-2.25Zm0 3a.75.75 0 0 1 0-1.5.75.75 0 0 1 0 1.5Zm6 1.5c1.24 0 2.25-1.009 2.25-2.25s-1.01-2.25-2.25-2.25a2.253 2.253 0 0 0-2.25 2.25c0 1.241 1.01 2.25 2.25 2.25Zm0-3a.75.75 0 0 1 0 1.5.75.75 0 0 1 0-1.5Zm-12-1.5A2.253 2.253 0 0 0 4.25 3.5c0 1.241 1.01 2.25 2.25 2.25S8.75 4.741 8.75 3.5 7.74 1.25 6.5 1.25Zm0 3a.75.75 0 0 1 0-1.5.75.75 0 0 1 0 1.5Zm6 2.667a2.253 2.253 0 0 0-2.25 2.25c0 1.241 1.01 2.25 2.25 2.25s2.25-1.009 2.25-2.25-1.01-2.25-2.25-2.25Zm0 3a.75.75 0 0 1 0-1.5.75.75 0 0 1 0 1.5Zm6-3a2.253 2.253 0 0 0-2.25 2.25c0 1.241 1.01 2.25 2.25 2.25s2.25-1.009 2.25-2.25-1.01-2.25-2.25-2.25Zm0 3a.75.75 0 0 1 0-1.5.75.75 0 0 1 0 1.5Zm-12-3a2.253 2.253 0 0 0-2.25 2.25c0 1.241 1.01 2.25 2.25 2.25s2.25-1.009 2.25-2.25-1.01-2.25-2.25-2.25Zm0 3a.75.75 0 0 1 0-1.5.75.75 0 0 1 0 1.5Zm6 2.666a2.253 2.253 0 0 0-2.25 2.25c0 1.241 1.01 2.25 2.25 2.25s2.25-1.009 2.25-2.25-1.01-2.25-2.25-2.25Zm0 3a.75.75 0 0 1 0-1.5.75.75 0 0 1 0 1.5Zm6-3a2.253 2.253 0 0 0-2.25 2.25c0 1.241 1.01 2.25 2.25 2.25s2.25-1.009 2.25-2.25-1.01-2.25-2.25-2.25Zm0 3a.75.75 0 0 1 0-1.5.75.75 0 0 1 0 1.5Zm-12-3a2.253 2.253 0 0 0-2.25 2.25c0 1.241 1.01 2.25 2.25 2.25s2.25-1.009 2.25-2.25-1.01-2.25-2.25-2.25Zm0 3a.75.75 0 0 1 0-1.5.75.75 0 0 1 0 1.5Zm6 2.667a2.253 2.253 0 0 0-2.25 2.25c0 1.241 1.01 2.25 2.25 2.25s2.25-1.009 2.25-2.25-1.01-2.25-2.25-2.25Zm0 3a.75.75 0 0 1 0-1.5.75.75 0 0 1 0 1.5Z"/></svg>
